app/dist/common/images/bunzl.svg

<svg height="18" viewBox="0 0 18 18" width="18" xmlns="http://www.w3.org/2000/svg"><path d="m0 0h18v18h-18z" fill="#f0f3fa"/><path d="m4 7h10v-3h-10z" fill="#093566"/><path d="m4 14h10v-3h-10z" fill="#74b943"/><path d="m4.71 9.19h.12c.16 0 .24.05.24.16 0 .1-.08.15-.24.15h-.12v-.3zm-.71.81h1c.52 0 .79-.2.79-.57 0-.26-.14-.41-.43-.47.2-.05.33-.2.33-.41 0-.33-.25-.55-.69-.55h-1zm.71-1.52h.1c.12 0 .19.05.19.14 0 .08-.07.14-.2.14h-.09zm1.29-.48h.83v1.11c0 .17 0 .22.17.22s.17-.06.17-.23v-1.1h.83v1.06c0 .23-.02.42-.13.56-.16.24-.48.38-.87.38-.4 0-.71-.14-.88-.38-.1-.14-.12-.33-.12-.56zm3 0h-.71v2h.71v-1.04l.57 1.04h.72v-2h-.67v1.05l-.63-1.05zm2.35.67h-.74v-.67h1.96l-.9 1.33h.72v.67h-1.96zm1.94-.67h-.72v2h1.43v-.67h-.71z" fill="#093566"/></svg>

<!-- by TradingView --><svg width="18" height="18" viewBox="0 0 18 18" xmlns="http://www.w3.org/2000/svg"><path fill="#F0F3FA" d="M0 0h18v18H0z"/><path d="M4 7h10V4H4v3Z" fill="#093566"/><path d="M4 14h10v-3H4v3Z" fill="#74B943"/><path d="M4.71 9.19h.12c.16 0 .24.05.24.16 0 .1-.08.15-.24.15h-.12V9.2ZM4 10h1c.52 0 .79-.2.79-.57 0-.26-.14-.41-.43-.47.2-.05.33-.2.33-.41C5.69 8.22 5.44 8 5 8H4v2Zm.71-1.52h.1c.12 0 .19.05.19.14 0 .08-.07.14-.2.14h-.09v-.28ZM6 8h.83v1.11c0 .17 0 .22.17.22s.17-.06.17-.23V8H8v1.06c0 .23-.02.42-.13.56-.16.24-.48.38-.87.38-.4 0-.71-.14-.88-.38-.1-.14-.12-.33-.12-.56V8Zm3 0h-.71v2H9V8.96L9.57 10h.72V8h-.67v1.05L8.99 8Zm2.35.67h-.74V8h1.96l-.9 1.33h.72V10h-1.96l.92-1.33ZM13.29 8h-.72v2H14v-.67h-.71V8Z" fill="#093566"/></svg>
